!!!COM: Scriabin, Alexander
!!!OTL: Prelude
!!!OPR: 6 Preludes
!!!OPS: 13
!!!ONM: 4
!!!ODT: 1895
!!!AGN: Prelude
**kern	**kern
*staff2	*staff1
*clefF4	*clefG2
*k[f#]	*k[f#]
*e:	*e:
*M2/4	*M2/4
=1	=1
12BBL	20ff#LL
.	20b
12F#	.
.	20f#
.	20a
12eJ	.
.	20ccJJ
12cL	20aLL
.	20ee
*clefG2	*
12a	.
.	20aa
.	20gg
12eeJ	.
.	20ff#JJ
=2	=2
12AL	20f#LL
.	20cc
12f#	.
.	20ee
.	20dd#X
12AJ	.
.	20ccJJ
12GL	20bLL
.	20dd#
12e	.
.	20ee
.	20ff#
12bJ	.
.	20ggJJ
=3	=3
12EL	20bbLL
.	20ee
12B	.
.	20b
.	20dd
12aJ	.
.	20ffnJJ
12fnL	20ddLL
.	20aa
12dd	.
.	20ddd
.	20ccc
12aaJ	.
.	20bbJJ
=4	=4
12dL	20bLL
.	20ffn
12b	.
.	20aa
.	20gg#X
12dJ	.
.	20ffJJ
12cL	20eeLL
.	20gg#
12a	.
.	20aa
.	20bb
12eeJ	.
.	20cccJJ
=5	=5
12F#XL	20eeeLL
.	20aa
12c	.
.	20ee
.	20aa
12aJ	.
.	20cccJJ
12GL	20bbLL
.	20ee
12e	.
.	20cc
.	20aa
12ccJ	.
.	20ggJJ
*clefF4	*
=6	=6
12D#XL	20bbLL
.	20ff#
12c	.
.	20cc
.	20ff#
12f#J	.
.	20bbJJ
12EL	20ggLL
.	20cc
12c	.
.	20g
.	20ff#
12gJ	.
.	20eeJJ
=7	=7
12BL	20ddLL
.	20g
12D	.
.	20d
.	20f#
12FF#J	.
.	20bJJ
12A#XL	20ccnLL
.	20f#
12E	.
.	20c
.	20e
12FF#J	.
.	20gJJ
=8	=8
8F#L	20bLL
.	20e
.	20B
8BBJ	.
.	20d#X
.	20f#JJ
4r	20dd#XLL
.	20g
.	20d#
.	20f#
.	20bJJ
=9	=9
12BBL	20ff#LL
.	20b
12F#	.
.	20f#
.	20a
12eJ	.
.	20ccJJ
12cL	20aLL
.	20ee
*clefG2	*
12a	.
.	20aa
.	20gg
12eeJ	.
.	20ff#JJ
=10	=10
12AL	20f#LL
.	20cc
12f#	.
.	20ee
.	20dd#X
12AJ	.
.	20ccJJ
12GL	20bLL
.	20dd#
12e	.
.	20ee
.	20ff#
12bJ	.
.	20ggJJ
=11	=11
12EL	20bbLL
.	20ee
12B	.
.	20b
.	20dd
12aJ	.
.	20ffnJJ
12fnL	20ddLL
.	20aa
12dd	.
.	20ddd
.	20ccc
12aaJ	.
.	20bbJJ
=12	=12
12dL	20bLL
.	20ffn
12b	.
.	20aa
.	20gg#X
12dJ	.
.	20ffJJ
12cL	20eeLL
.	20gg#
12a	.
.	20aa
.	20bb
12eeJ	.
.	20cccJJ
=13	=13
12F#XL	20eeeLL
.	20aa
12c	.
.	20ee
.	20aa
12aJ	.
.	20eeeJJ
12GL	20dddLL
.	20gg
12e	.
.	20ee
.	20ccc
12bJ	.
.	20bbJJ
*clefF4	*
=14	=14
12EL	20cccLL
.	20gg
12c	.
.	20cc
.	20gg
12gJ	.
.	20cccJJ
12E-XL	20bbLL
.	20gg
12A	.
.	20cc
.	20aa
12gJ	.
.	20ggJJ
=15	=15
12gL	20dddLL
.	20aa
12B	.
.	20dd
.	20gg
12DJ	.
.	20bbJJ
12f#L	20aaLL
.	20ee
12c	.
.	20a
.	20dd
12DJ	.
.	20ff#JJ
=16	=16
12dL	20ggLL
.	20cc
12D	.
.	20g
.	20b
12GGJ	.
.	20ddJJ
20gLL	4r
20c	.
20G	.
20B	.
20dJJ	.
=17	=17
20aLL	8.r
20c	.
20Fn	.
20B	.
.	16ffn
20dJJ	.
20aLL	8.ddL
20c	.
20F	.
20B	.
.	16ddJk
20dJJ	.
=18	=18
20aLL	2dd
20c	.
20Fn	.
20B	.
20dJJ	.
20aLL	.
20c	.
20F	.
20B	.
20dJJ	.
=19	=19
.	16qqcc/LL
.	16qqdd/JJ
20g#XLL	[4ee
20c	.
20E	.
20B	.
20dJJ	.
20g#LL	8eeL]
20c	.
20E	.
.	8ddJ
20B	.
20dJJ	.
=20	=20
20aLL	2cc
20c	.
20E	.
20A	.
20cJJ	.
20eLL	.
20B	.
20E	.
20A	.
20cJJ	.
=21	=21
20gnLL	8.r
20B	.
20E	.
20A	.
.	16ee
20cJJ	.
20gLL	8.ccL
20B	.
20E	.
20A	.
.	16ccJk
20cJJ	.
=22	=22
20gLL	2cc
20B	.
20E	.
20A	.
20cJJ	.
20gLL	.
20B	.
20E	.
20A	.
20cJJ	.
=23	=23
.	16qqb/LL
.	16qqcc/JJ
20f#LL	[4dd
20B	.
20D	.
20A	.
20cJJ	.
20f#LL	8.ddL]
20B	.
20D	.
20A	.
.	16ccJk
20cJJ	.
=24	=24
20f#LL	2b
20B	.
20D#X	.
20A	.
20BJJ	.
20f#LL	.
20B	.
20D#	.
20A	.
20BJJ	.
=25	=25
20f#LL	[4dd
20B	.
20Dn	.
20A	.
20cJJ	.
20f#LL	8.ddL]
20B	.
20D	.
20A	.
.	16ccJk
20cJJ	.
=26	=26
20f#LL	4b
20B	.
20D#X	.
20A	.
20BJJ	.
20f#LL	4cc
20B	.
20Dn	.
20A	.
20BJJ	.
=27	=27
20f#LL	4b
20B	.
20D#X	.
20A	.
20BJJ	.
20f#LL	12ccL
20B	.
.	12bJ
20D#	.
20A	.
.	12r
20BJJ	.
=28	=28
20f#LL	12ccL
20B	.
.	12bJ
20D#X	.
20A	.
.	12r
20BJJ	.
20f#LL	12ccL
20B	.
.	12bJ
20D#	.
20A	.
.	12r
20BJJ	.
=29	=29
12BBL	20ff#LL
.	20b
12F#	.
.	20f#
.	20a
12eJ	.
.	20ccJJ
12cL	20aLL
.	20ee
*clefG2	*
12a	.
.	20aa
.	20gg
12eeJ	.
.	20ff#JJ
=30	=30
12AL	20f#LL
.	20cc
12f#	.
.	20ee
.	20dd#X
12AJ	.
.	20ccJJ
12GL	20bLL
.	20dd#
12e	.
.	20ee
.	20ff#
12bJ	.
.	20ggJJ
=31	=31
12EL	20bbLL
.	20ee
12B	.
.	20b
.	20dd
12aJ	.
.	20ffnJJ
12fnL	20ddLL
.	20aa
12dd	.
.	20ddd
.	20ccc
12aaJ	.
.	20bbJJ
=32	=32
12dL	20bLL
.	20ffn
12b	.
.	20aa
.	20gg#X
12dJ	.
.	20ffJJ
12cL	20eeLL
.	20gg#
12a	.
.	20aa
.	20bb
12eeJ	.
.	20cccJJ
=33	=33
12F#XL	20eeeLL
.	20aa
12c	.
.	20ee
.	20aa
12aJ	.
.	20cccJJ
12GL	20bbLL
.	20ee
12e	.
.	20cc
.	20aa
12ccJ	.
.	20ggJJ
=34	=34
*clefF4	*
12D#XL	20bbLL
.	20ff#
12c	.
.	20cc
.	20ff#
12f#J	.
.	20bbJJ
12EL	20ggLL
.	20cc
12c	.
.	20g
.	20ff#
12gJ	.
.	20eeJJ
=35	=35
12GG#XL	20eeLL
.	20b
12Fn	.
.	20fn
.	20b
12BJ	.
.	20eeJJ
12AAL	20ccLL
.	20f
12F	.
.	20c
.	20b
12cJ	.
.	20aJJ
=36	=36
12EL	20gLL
.	20c
12GG	.
.	20G
.	20B
12BBBJ	.
.	20eJJ
12D#XL	20fnLL
.	20B
12AA	.
.	20Fn
.	20A
12BBBJ	.
.	20cJJ
=37	=37
*	*clefF4
12EL	20eLL
.	20A
12BB	.
.	20E
.	20G#X
12EEJ	.
.	20BJJ
12D#XL	20fnLL
.	20B
12AA	.
.	20Fn
.	20A
12EEJ	.
.	20cJJ
=38	=38
12EL	20eLL
.	20A
12BB	.
.	20E
.	20G#X
12EEJ	.
.	20BJJ
12FnL	20d#XLL
.	20A
12BB	.
.	20D#X
.	20A
12EEJ	.
.	20BJJ
=39	=39
12EL	20eLL
.	20A
12BB	.
.	20E
.	20G#X
12EEJ	.
.	20BJJ
12D#XL	20fnLL
.	20B
12AA	.
.	20Fn
.	20A
12EEJ	.
.	20cJJ
=40	=40
12EL	20eLL
.	20A
12BB	.
.	20E
.	20G#X
12EEJ	.
.	20BJJ
12FnL	20d#XLL
.	20A
12BB	.
.	20D#X
.	20A
12EEJ	.
.	20BJJ
=41	=41
2EE 2E	20eLL
.	20A
.	20E
.	20G#X
.	20BJJ
.	20eLL
.	20A
.	20E
.	20G#
.	20BJJ
=42	=42
*	*^
*	*	*^
2BBB 2BB	20eLL	4rEE	4r
.	20A	.	.
.	20E	.	.
.	20G#X	.	.
.	20BJJ	.	.
.	20eLL	10rEE	10.r
.	20A	.	.
.	20E	[10.E	.
.	20G#	.	[10G#\
.	[20BJJ	.	.
=43	=43	=43	=43
2EEE 2EE	2B] 2e	2E]	2G#\]
*	*v	*v	*v
*	*clefG2
=44	=44
2EE 2BB 2G#X	2e 2b 2ee
==	==
*-	*-
!!!system-decoration: {(*)}
!!!ENC: Bryan Jacob Bell
!!!END: November 2021 to April 2022
!!!PED: Günter Philipp
!!!PTL: Ausgewählte Klavierwerke (Edition Peters)
